images/usecases/scada/connectors.svg

<svg width="337" height="291" viewBox="0 0 337 291" fill="none" xmlns="http://www.w3.org/2000/svg">
<rect x="-0.75" y="0.75" width="158.5" height="158.5" rx="39.25" transform="matrix(-1 0 0 1 158.5 43.8652)" fill="#F4F8FE" stroke="#3E9AF8" stroke-width="1.5"/>
<g clip-path="url(#clip0_11143_177635)">
<path d="M80 63.8652V105.265C80 115.538 71.6725 123.865 61.4 123.865H20" stroke="#1A1A1A" stroke-width="3.6"/>
</g>
<rect x="177.75" y="1.25" width="158.5" height="158.5" rx="39.25" fill="#F4F8FE" stroke="#3E9AF8" stroke-width="1.5"/>
<g clip-path="url(#clip1_11143_177635)">
<rect width="120" height="120" transform="translate(197 20.5)" fill="#F4F8FE"/>
<path d="M317 80.5H266C261.029 80.5 257 84.5294 257 89.5V140.5" stroke="#1A1A1A" stroke-width="3.6"/>
<path d="M197 80.5H248C252.971 80.5 257 84.5294 257 89.5V140.5" stroke="#1A1A1A" stroke-width="3.6"/>
<path d="M317 80.5H266C261.029 80.5 257 76.4706 257 71.5V20.5" stroke="#1A1A1A" stroke-width="3.6"/>
<path d="M197 80.5H248C252.971 80.5 257 76.4706 257 71.5V20.5" stroke="#1A1A1A" stroke-width="3.6"/>
<path d="M249.199 80.4996H264.799C264.799 80.4996 256.999 80.4996 256.999 88.8996C256.999 80.4996 249.199 80.4996 249.199 80.4996Z" fill="#1A1A1A"/>
<path d="M249.199 80.4996H264.799C264.799 80.4996 256.999 80.4996 256.999 72.0996C256.999 80.4996 249.199 80.4996 249.199 80.4996Z" fill="#1A1A1A"/>
<path d="M264.799 80.4996H249.199M264.799 80.4996C264.799 80.4996 256.999 80.4996 256.999 88.8996C256.999 80.4996 249.199 80.4996 249.199 80.4996M264.799 80.4996C264.799 80.4996 256.999 80.4996 256.999 72.0996C256.999 80.4996 249.199 80.4996 249.199 80.4996" stroke="#1A1A1A" stroke-width="1.2"/>
</g>
<rect x="77.75" y="131.25" width="158.5" height="158.5" rx="39.25" fill="#F4F8FE" stroke="#3E9AF8" stroke-width="1.5"/>
<rect width="120" height="120" transform="matrix(0 1 -1 0 217 150.5)" fill="#F4F8FE"/>
<path d="M139.602 210.5L174.402 193.1V227.9L139.602 210.5Z" fill="#1A1A1A"/>
<path d="M217 210.5L97 210.5" stroke="#1A1A1A" stroke-width="3.6"/>
<defs>
<clipPath id="clip0_11143_177635">
<rect width="120" height="120" fill="white" transform="matrix(-1 0 0 1 140 63.8652)"/>
</clipPath>
<clipPath id="clip1_11143_177635">
<rect width="120" height="120" fill="white" transform="translate(197 20.5)"/>
</clipPath>
</defs>
</svg>

<svg width="337" height="291" fill="none" xmlns="http://www.w3.org/2000/svg"><rect x="-.75" y=".75" width="158.5" height="158.5" rx="39.25" transform="matrix(-1 0 0 1 158.5 43.865)" fill="#F4F8FE" stroke="#3E9AF8" stroke-width="1.5"/><g clip-path="url(#a)"><path d="M80 63.865v41.4c0 10.273-8.328 18.6-18.6 18.6H20" stroke="#1A1A1A" stroke-width="3.6"/></g><rect x="177.75" y="1.25" width="158.5" height="158.5" rx="39.25" fill="#F4F8FE" stroke="#3E9AF8" stroke-width="1.5"/><g clip-path="url(#b)"><path fill="#F4F8FE" d="M197 20.5h120v120H197z"/><path d="M317 80.5h-51a9 9 0 0 0-9 9v51M197 80.5h51a9 9 0 0 1 9 9v51M317 80.5h-51a9 9 0 0 1-9-9v-51M197 80.5h51a9 9 0 0 0 9-9v-51" stroke="#1A1A1A" stroke-width="3.6"/><path d="M249.199 80.5h15.6s-7.8 0-7.8 8.4c0-8.4-7.8-8.4-7.8-8.4ZM249.199 80.5h15.6s-7.8 0-7.8-8.4c0 8.4-7.8 8.4-7.8 8.4Z" fill="#1A1A1A"/><path d="M264.799 80.5h-15.6m15.6 0s-7.8 0-7.8 8.4c0-8.4-7.8-8.4-7.8-8.4m15.6 0s-7.8 0-7.8-8.4c0 8.4-7.8 8.4-7.8 8.4" stroke="#1A1A1A" stroke-width="1.2"/></g><rect x="77.75" y="131.25" width="158.5" height="158.5" rx="39.25" fill="#F4F8FE" stroke="#3E9AF8" stroke-width="1.5"/><path fill="#F4F8FE" d="M217 150.5v120H97v-120z"/><path d="m139.602 210.5 34.8-17.4v34.8l-34.8-17.4Z" fill="#1A1A1A"/><path d="M217 210.5H97" stroke="#1A1A1A" stroke-width="3.6"/><defs><clipPath id="a"><path fill="#fff" transform="matrix(-1 0 0 1 140 63.865)" d="M0 0h120v120H0z"/></clipPath><clipPath id="b"><path fill="#fff" transform="translate(197 20.5)" d="M0 0h120v120H0z"/></clipPath></defs></svg>
